!!!!SEGMENT: pl-cz--ii-246--002-003_anonim--partita-es-finale.krn
!!!cenid: 17xx:2188
!!!COM: Anonim
!!!COM-rismID: pe30004985
!!!CDT:
!!!CNT:
!!!OPR: Partita Es
!!!OTL: Finale
!!!OMV: 003
!!!PDT:
!!!AGN: Secular
!!!SMS-siglum: PL-CZ
!!!SMS-shelfmark: II-246
!!!SMS-shelfwork: 002-003 M
!!!SMS-variant:
!!!SMS-altvar:
!!!NIFC-rismSourceID: 1001012552
!!!NIFC-islandoraID: pl-cz:5882
!!!URL-pdf-islandora: https://repozytorium.nifc.pl/islandora/object/pl-cz%3A5882/datastream/PDF/view
!!!URL-scan: https://polish.musicsources.pl/pl/lokalizacje/galeria/rekopisy/795 @EN{Scan on Polish Music Sources Website} @PL{Skany w portalu Dziedzictwo Muzyki Polskiej w otwartym dostępie}
!!!ONB-nifc: UWAGA: w źródle 2 Partity Es (początkowy nr 001 lub 002). Części 1. Partity: 1. Allegro, 2. Finale. Części 2. Partity: 1. Allegro, 2. Allegro moderato, 3. Finale
!!!AIN: 2 clars 2 empty 1 fagot 2 picco
!!!key:
**kern	**kern	**kern	**kern	**kern	**kern	**kern
*group2	*group2	*group1	*group1	*group1	*group1	*group1
*part7	*part6	*part5	*part4	*part3	*part2	*part1
*staff7	*staff6	*staff5	*staff4	*staff3	*staff2	*staff1
*Iempty	*Iempty	*Ifagot	*Iclars	*Iclars	*Ipicco	*Ipicco
*I"Cornu Secundo.	*I"Cornu Primo	*I"Fagotto.	*I"Clarinetto Secundo	*I"Clarinetto Primo	*I"Picolo Secundo	*I"Picolo Primo
*I'cor 2	*I'cor 1	*I'fag	*I'cl 2	*I'cl 1	*I'fl. picc 2	*I'fl. picc 1
*clefG2	*clefG2	*clefF4	*clefG2	*clefG2	*clefG2	*clefG2
*ITrd5c9	*ITrd5c9	*	*ITrd1c2	*ITrd1c2	*ITrd0c0	*ITrd0c0
*k[b-e-a-]	*k[b-e-a-]	*k[b-e-a-]	*k[b-e-a-]	*k[b-e-a-]	*k[b-e-a-]	*k[b-e-a-]
*E-:	*E-:	*E-:	*E-:	*E-:	*E-:	*E-:
*M2/4	*M2/4	*M2/4	*M2/4	*M2/4	*M2/4	*M2/4
!	!	!	!LO:TX:i:a:t=Finale molto.	!LO:TX:a:t=P:problem=all\right&colon; global	!	!
8r	8r	8r	8r	8b-\	8ryy	8ryy
=1	=1	=1	=1	=1	=1	=1
*2\right	*2\right	*2\right	*2\right	*2\right	*2\right	*2\right
!LO:TX:a:t=8	!LO:TX:a:t=8	!	!	!	!	!
!LO:N:vis=00	!LO:N:vis=00	!	!	!	!	!
0r	0r	8e-\L	8g/L	8b-\L	2ryy	2ryy
.	.	8e-\	8g/	8ee-\	.	.
.	.	8e-\	8g/	8ee-\	.	.
.	.	8e-\J	8g/J	8ee-\J	.	.
=2	=2	=2	=2	=2	=2	=2
.	.	8e-\L	8a-/L	8ff\L	2ryy	2ryy
.	.	8e-\	8g/	8ee-\	.	.
.	.	8e-\	8g/	8ee-\	.	.
.	.	8e-\J	8g/J	8ee-\J	.	.
=3	=3	=3	=3	=3	=3	=3
.	.	8e-\L	8a-/L	8ff\L	2ryy	2ryy
.	.	8e-\	8g/	8ee-\	.	.
.	.	8e-\	8g/	8ee-\	.	.
.	.	8e-\J	8g/J	8ee-\J	.	.
=4	=4	=4	=4	=4	=4	=4
.	.	8e-\L	8a-/L	8ff\L	2ryy	2ryy
.	.	8e-\J	8g/	8ee-\J	.	.
.	.	4E-\	8g/	4ee-\	.	.
.	.	.	8g/J	.	.	.
=5	=5	=5	=5	=5	=5	=5
!LO:N:vis=00	!LO:N:vis=00	!LO:TX:a:t=2	!	!	!	!
!	!	!LO:N:vis=0	!	!	!	!
0r	0r	1r	8b-\	8dd\	2ryy	2ryy
!	!	!	!LO:N:vis=4	!	!	!
.	.	.	8r	8r	.	.
.	.	.	8cc\	8ee-\	.	.
.	.	.	8r	8r	.	.
=6	=6	=6	=6	=6	=6	=6
.	.	.	8dd\	8ff\	2ryy	2ryy
.	.	.	8r	8r	.	.
.	.	.	8ee-\	8gg\	.	.
.	.	.	8r	8r	.	.
=7	=7	=7	=7	=7	=7	=7
.	.	8BB-\L	8ff\L	8aa-\L	2ryy	2ryy
.	.	8D\	8ff\	8aa-\	.	.
.	.	8E-\	8ee-\	8gg\	.	.
.	.	8G\J	8ee-\J	8gg\J	.	.
=8	=8	=8	=8	=8	=8	=8
!	!	!LO:TX:t=P:problem=mixed beam	!	!	!	!
.	.	8B-\L	4dd\	4ff\	2ryy	2ryy
.	.	8F\	.	.	.	.
.	.	8BB-/J	4r	8r	.	.
.	.	8r	.	8b-\	.	.
=9	=9	=9	=9	=9	=9	=9
*	*	*tremolo	*	*	*	*
4E-/	4e-\	8E-\L	8g/L	8b-\L	2ryy	2ryy
.	.	8E-\	8g/	8ee-\	.	.
4r	4r	8E-\	8g/	8ee-\	.	.
.	.	8E-\J	8g/J	8ee-\J	.	.
!	!	!	!	!LO:LB:g=original	!	!
=10	=10	=10	=10	=10	=10	=10
4E-/	4e-\	8E-\L	8a-/L	8ff\L	2ryy	2ryy
.	.	8E-\	8g/	8ee-\	.	.
4r	4r	8E-\	8g/	8ee-\	.	.
.	.	8E-\J	8g/J	8ee-\J	.	.
=11	=11	=11	=11	=11	=11	=11
!	!LO:N:vis=8	!	!	!	!	!
4E-/	4e-\	8E-\L	8a-/L	8ff\L	2ryy	2ryy
.	.	8E-\	8g/	8ee-\	.	.
4r	4r	8E-\	8g/	8ee-\	.	.
.	.	8E-\J	8g/J	8ee-\J	.	.
*	*	*Xtremolo	*	*	*	*
!	!	!	!LO:LB:g=original	!	!	!
=12	=12	=12	=12	=12	=12	=12
4E-/	4e-\	8E-\L	8a-/L	8ff\L	2ryy	2ryy
.	.	8E-\J	8g/J	8ee-\J	.	.
4r	4r	4E-\	4g/	4ee-\	.	.
!	!	!LO:LB:g=original	!	!	!	!
=13	=13	=13	=13	=13	=13	=13
!LO:TX:a:t=2	!	!	!	!	!	!
!LO:N:vis=0	!LO:N:vis=0	!	!	!	!	!
1r	1r	8B-\L	8dd-X\L	4bb-\	2ryy	2ryy
.	.	8B-\	8dd-\	.	.	.
.	.	8B-\	8dd-\	8gg\L	.	.
.	.	8B-\J	8dd-\J	8eeX\J	.	.
=14	=14	=14	=14	=14	=14	=14
.	.	4A-\	4cc\	8ff\L	2ryy	2ryy
.	.	.	.	8gg\	.	.
.	.	8r	8r	8aa-\	.	.
.	.	8A-\	8cc\	8ff\J	.	.
=15	=15	=15	=15	=15	=15	=15
4B-/	4f\	4B-\	4a-\	8ee-X\L	2ryy	2ryy
.	.	.	.	8dd\	.	.
4B-/	4f\	4BB-/	4a-\	8cc\	.	.
.	.	.	.	8b-\J	.	.
=16	=16	=16	=16	=16	=16	=16
!	!LO:SIC:v:s=4cc	!	!	!	!	!
4G/	4f\	4E-\	4g/	4ee-\	2ryy	2ryy
4r	4r	4r	8r	8r	.	.
.	.	.	8dd\	8ff\	.	.
=17	=17	=17	=17	=17	=17	=17
!LO:TX:a:t=I	!LO:TX:a:t=I	!LO:TX:a:t=I.	!	!	!	!
2r	2r	2r	8dd\L	8ff\L	2ryy	2ryy
.	.	.	8ee-\	8gg\	.	.
.	.	.	8ff\	8aa-\	.	.
.	.	.	8ee-\J	8gg\J	.	.
=18	=18	=18	=18	=18	=18	=18
!	!	!LO:TX:t=P:problem=mixed beam	!	!	!	!
8B-/L	8f\L	8BB-/L	4dd\	4ff\	2ryy	2ryy
8B-/	8f\	8B-\	.	.	.	.
8B-/J	8f\J	8BB-/J	8r	8r	.	.
8r	8r	8r	8ee-\	8gg\	.	.
=19	=19	=19	=19	=19	=19	=19
!LO:TX:a:t=I	!LO:TX:t=P:problem=brak tt. 19-20	!LO:TX:a:t=I.	!	!	!	!
2r	2ryy	2r	8ee-\L	8gg\L	2ryy	2ryy
.	.	.	8ff\	8aa-\	.	.
.	.	.	8gg\	8bb-\	.	.
.	.	.	8ff\J	8aa-\J	.	.
=20	=20	=20	=20	=20	=20	=20
!	!	!LO:TX:t=P:problem=mixed beam	!	!	!	!
8e-\L	2ryy	8EE-/L	4ee-\	4gg\	2ryy	2ryy
8e-\	.	8E-\	.	.	.	.
8e-\J	.	8EE-/J	4r	4r	.	.
8r	.	8r	.	.	.	.
!	!	!	!	!LO:LB:g=original	!	!
=21	=21	=21	=21	=21	=21	=21
!LO:TX:a:t=4	!LO:TX:a:t=4	!	!	!	!	!
!LO:N:vis=00	!LO:N:vis=00	!	!	!	!	!
0r	0r	4D\	4b-\	4ff\	2ryy	2ryy
.	.	4D\	4b-\	4ff\	.	.
=22	=22	=22	=22	=22	=22	=22
.	.	4E-\	4b-\	4gg\	2ryy	2ryy
.	.	4E-\	4b-\	4gg\	.	.
=23	=23	=23	=23	=23	=23	=23
.	.	4F\	8cc\L	8ee-\L	2ryy	2ryy
.	.	.	8b-\	8dd\	.	.
.	.	4F\	8cc\	8ee-\	.	.
.	.	.	8dd\J	8ff\J	.	.
=24	=24	=24	=24	=24	=24	=24
.	.	4G\	4b-\	4dd\	2ryy	2ryy
.	.	4G\	4b-\	4dd\	.	.
!	!	!	!LO:LB:g=original	!	!	!
=25	=25	=25	=25	=25	=25	=25
4B-/	4f\	8F\L	8b-\L	4ff\	2ryy	2ryy
.	.	8F\	8b-\	.	.	.
8B-/L	8f\L	8F\	8b-\	16bb-\LL	.	.
.	.	.	.	16aa-\	.	.
8B-/J	8f\J	8F\J	8b-\J	16gg\	.	.
.	.	.	.	16ff\JJ	.	.
=26	=26	=26	=26	=26	=26	=26
4e-\	4g\	8G\L	8b-\L	16gg\LL	2ryy	2ryy
.	.	.	.	16aa-\	.	.
.	.	8G\	8b-\	16bb-\	.	.
.	.	.	.	16aa-\JJ	.	.
4r	4r	8G\	8cc\	16bb-\LL	.	.
.	.	.	.	16aa-\	.	.
.	.	8G\J	8cc\J	16gg\	.	.
.	.	.	.	16ff\JJ	.	.
!	!	!LO:LB:g=original	!	!	!	!
=27	=27	=27	=27	=27	=27	=27
!	!	!LO:TX:t=P:problem=mixed beam	!	!	!	!
8f\L	4f\	8F\L	8cc\L	4dd\	2ryy	2ryy
8f\J	.	8F\	8f\	.	.	.
4f\	8f\L	8FF/	8e-\	4cc\	.	.
.	8f\J	8FF/J	8g\J	.	.	.
!LO:LB:g=original	!	!	!	!	!	!
=28	=28	=28	=28	=28	=28	=28
!	!	!LO:TX:t=P:problem=mixed beam	!	!	!	!
8B-/L	8f\L	8BB-/L	8d/L	8b-\L	2ryy	2ryy
8B-/J	8f\J	8B-\J	8d/J	8b-\J	.	.
!LO:N:vis=2	!LO:N:vis=2	!	!	!	!	!
4r	4r	4BB-/	8r	8r	.	.
.	.	.	8dd\	8ff\	.	.
=29	=29	=29	=29	=29	=29	=29
!LO:TX:a:t=I	!LO:TX:a:t=I	!	!	!	!	!
2r	2r	4F\	8r	8r	2ryy	2ryy
.	.	.	8cc\	8ee-\	.	.
.	.	4FF/	8r	8r	.	.
.	.	.	8a\	8cc\	.	.
!	!LO:LB:g=original	!	!	!	!	!
=30	=30	=30	=30	=30	=30	=30
8B-/L	8f\L	8BB-/L	8b-\L	8dd\L	2ryy	2ryy
8B-/J	8f\J	8BB-/J	8b-\J	8dd\J	.	.
4r	4r	4D\	8r	8r	.	.
.	.	.	8f/	8b-\	.	.
!	!	!	!	!LO:PB:g=original	!	!
=31	=31	=31	=31	=31	=31	=31
!LO:TX:a:t=I	!LO:TX:a:t=I	!	!	!	!	!
2r	2r	4E-\	8r	8r	2ryy	2ryy
.	.	.	8g/	8cc\	.	.
.	.	4F\	8r	8r	.	.
!	!	!	!	!LO:SIC:v:s=8bn	!	!
.	.	.	8e-/	8a-\	.	.
=32	=32	=32	=32	=32	=32	=32
!	!	!LO:TX:t=P:problem=mixed beam	!	!	!	!
8B-/L	8f\L	8BB-/L	8d/L	8b-\L	2ryy	2ryy
8B-/J	8f\J	8B-\J	8d/J	8b-\J	.	.
4r	4r	4BB-/	8r	8r	.	.
.	.	.	8dd\	8ff\	.	.
=33	=33	=33	=33	=33	=33	=33
!LO:TX:a:t=1	!LO:TX:a:t=I	!	!	!	!	!
2r	2r	4F\	8r	8r	2ryy	2ryy
.	.	.	8cc\	8ee-\	.	.
.	.	4FF/	8r	8r	.	.
.	.	.	8a\	8cc\	.	.
=34	=34	=34	=34	=34	=34	=34
!LO:TX:t=P:problem=brak tt. 34-35	!	!	!	!	!	!
2ryy	8f\L	8BB-/L	8b-\L	8dd\L	2ryy	2ryy
.	8f\J	8BB-/J	8b-\J	8dd\J	.	.
.	4r	4D\	8r	8r	.	.
.	.	.	8f/	8b-\	.	.
!	!	!	!LO:LB:g=original	!	!	!
=35	=35	=35	=35	=35	=35	=35
!	!LO:TX:a:t=I	!	!	!	!	!
2ryy	2r	4E-\	8r	8r	2ryy	2ryy
!	!	!	!	!LO:N:vis=4	!	!
.	.	.	8g/	8cc\	.	.
.	.	4F\	8r	8r	.	.
.	.	.	8e-/	8an\	.	.
=36	=36	=36	=36	=36	=36	=36
!	!	!	!LO:SIC:v:s=2e	!	!	!
2B-/	2B-/	2B-\	2c/	8b-\L	2ryy	2ryy
.	.	.	.	8b-\	.	.
.	.	.	.	8b-\	.	.
.	.	.	.	8bb-\J	.	.
=37	=37	=37	=37	=37	=37	=37
2B-/	2B-/	2B-\	2a\	8cc\L	2ryy	2ryy
.	.	.	.	8cc\	.	.
.	.	.	.	8cc\	.	.
.	.	.	.	8bb-\J	.	.
=38	=38	=38	=38	=38	=38	=38
2B-/	2B-/	2f\	2a-X\	8dd\L	2ryy	2ryy
.	.	.	.	8dd\	.	.
.	.	.	.	8dd\	.	.
.	.	.	.	8bb-\J	.	.
=39	=39	=39	=39	=39	=39	=39
!LO:TX:a:t=10	!LO:TX:a:t=10	!LO:TX:a:t=2	!LO:TX:a:t=2.	!LO:TX:a:t=I.	!	!
!LO:N:vis=00	!LO:N:vis=00	!LO:N:vis=0	!LO:N:vis=0	!	!	!
0r	0r	1r	1r	2r	2ryy	2ryy
=40	=40	=40	=40	=40	=40	=40
.	.	.	.	4r	2ryy	2ryy
.	.	.	.	8r	.	.
.	.	.	.	8b-\	.	.
!	!	!	!	!LO:LB:g=original	!	!
=41	=41	=41	=41	=41	=41	=41
.	.	8e-\L	8g/L	8b-\L	2ryy	2ryy
.	.	8e-\	8g/	8ee-\	.	.
.	.	8e-\	8g/	8ee-\	.	.
.	.	8e-\J	8g/J	8ee-\J	.	.
!	!	!LO:LB:g=original	!	!	!	!
=42	=42	=42	=42	=42	=42	=42
.	.	8e-\L	8a-/L	8ff\L	2ryy	2ryy
.	.	8e-\	8g/	8ee-\	.	.
.	.	8e-\	8g/	8ee-\	.	.
.	.	8e-\J	8g/J	8ee-\J	.	.
=43	=43	=43	=43	=43	=43	=43
!LO:N:vis=00	!LO:N:vis=00	!	!	!	!	!
0r	0r	8e-\L	8a-/L	8ff\L	2ryy	2ryy
.	.	8e-\	8g/	8ee-\	.	.
.	.	8e-\	8g/	8ee-\	.	.
.	.	8e-\J	8g/J	8ee-\J	.	.
=44	=44	=44	=44	=44	=44	=44
.	.	8e-\L	8a-/L	8ff\L	2ryy	2ryy
.	.	8e-\J	8g/J	8ee-\J	.	.
.	.	4E-\	4g/	4ee-\	.	.
=45	=45	=45	=45	=45	=45	=45
!	!	!LO:TX:a:t=2	!	!	!	!
!	!	!LO:N:vis=0	!	!	!	!
.	.	1r	8b-\	8dd\	2ryy	2ryy
.	.	.	8r	8r	.	.
.	.	.	8cc\	8ee-\	.	.
.	.	.	8r	8r	.	.
=46	=46	=46	=46	=46	=46	=46
.	.	.	8dd\	8ff\	2ryy	2ryy
.	.	.	8r	8r	.	.
.	.	.	8ee-\	8gg\	.	.
.	.	.	8r	8r	.	.
=47	=47	=47	=47	=47	=47	=47
!LO:N:vis=0	!LO:N:vis=0	!	!	!	!	!
1r	1r	8BB-\L	8ff\L	8aa-\L	2ryy	2ryy
.	.	8D\	8ff\	8aa-\	.	.
.	.	8E-\	8ee-\	8gg\	.	.
.	.	8G\J	8ee-\J	8gg\J	.	.
=48	=48	=48	=48	=48	=48	=48
!	!	!LO:TX:t=P:problem=mixed beam	!	!	!	!
.	.	8B-\L	4dd\	4ff\	2ryy	2ryy
.	.	8F\	.	.	.	.
.	.	8BB-/J	4r	8r	.	.
.	.	8r	.	8b-\	.	.
!	!	!	!LO:LB:g=original	!	!	!
=49	=49	=49	=49	=49	=49	=49
4E-/	4e-\	8E-\L	8g/L	8b-\L	2ryy	2ryy
.	.	8E-\	8g/	8ee-\	.	.
4r	4r	8E-\	8g/	8ee-\	.	.
.	.	8E-\J	8g/J	8ee-\J	.	.
=50	=50	=50	=50	=50	=50	=50
4E-/	4e-\	8E-\L	8a-/L	8ff\L	2ryy	2ryy
.	.	8E-\	8g/	8ee-\	.	.
4r	4r	8E-\	8g/	8ee-\	.	.
.	.	8E-\J	8g/J	8ee-\J	.	.
=51	=51	=51	=51	=51	=51	=51
4E-/	4e-\	8E-\L	8a-/L	8ff\L	2ryy	2ryy
.	.	8E-\	8g/	8ee-\	.	.
4r	4r	8E-\	8g/	8ee-\	.	.
.	.	8E-\J	8g/J	8ee-\J	.	.
!	!	!	!	!LO:LB:g=original	!	!
=52	=52	=52	=52	=52	=52	=52
4E-/	4e-\	8E-\L	8a-/L	8ff\L	2ryy	2ryy
.	.	8E-\J	8g/J	8ee-\J	.	.
4r	4r	4E-\	4g/	4ee-\	.	.
!	!	!LO:LB:g=original	!	!	!	!
=53	=53	=53	=53	=53	=53	=53
!LO:TX:a:t=2	!LO:TX:a:t=2	!	!	!	!	!
!LO:N:vis=0	!LO:N:vis=0	!	!	!	!	!
1r	1r	8B-\L	8dd-X\L	4bb-\	2ryy	2ryy
.	.	8B-\	8dd-\	.	.	.
.	.	8B-\	8dd-\	8gg\L	.	.
.	.	8B-\J	8dd-\J	8ee-\J	.	.
=54	=54	=54	=54	=54	=54	=54
.	.	4A-\	4cc\	8ff\L	2ryy	2ryy
.	.	.	.	8gg\	.	.
.	.	8r	8r	8aa-\	.	.
.	.	8A-\	8cc\	8ff\J	.	.
=55	=55	=55	=55	=55	=55	=55
4B-/	4f\	4B-\	4a-\	8ee-X\L	2ryy	2ryy
.	.	.	.	8dd\	.	.
4B-/	4f\	4BB-/	4a-\	8cc\	.	.
.	.	.	.	8b-\J	.	.
=56	=56	=56	=56	=56	=56	=56
!	!LO:SIC:v:s=4cc	!	!	!	!	!
4G/	4f\	4E-\	4g/	4ee-\	2ryy	2ryy
!	!	!	!	!LO:TX:i:b:t=Scripsit Kotlin	!	!
4r	4r	4r	4r	4r	.	.
==	==	==	==	==	==	==
*-	*-	*-	*-	*-	*-	*-
!!!system-decoration: [(g1)(g2)]
!!!RDF**kern: | = vertical stroke
!!!RDF**kern: > = above
!!!RDF**kern: < = below
!!!ENC: Krzysztof Stępień
!!!END: 2021-06-17
!!!EED: Antoni Szymański
!!!EEV: 2021-06-23
!!!YEC: Copyright 2022 Narodowy Instytut Fryderyka Chopina (https://polishscores.org)
!!!YEM: Licence CC BY 4.0 (https://creativecommons.org/licenses/by/4.0)
